X:18293
T:Village Boy,The,Quadrille. BF13.065
T:Trip to Cottingham. BF13.065
T:Garcon Volange,Le. BF13.065
M:6/8
L:1/8
Q:100
S:J.Lishman()MS,c1825,Lakes,Browne Coll.
R:Quadrille
O:England
A:Lakes
K:F
c/A/|FcA FcA|GcB GcB|Acf fef|agg gec|!
FcA FcA|GcB GcB|Acf age|f3f3||!
|a3f3|gggg2z|g3e3|ffff2z|a3f3|gggg2z|g3e3|fff fcA||!
{d}c3BAB|{d}c3BAB|Acf fga|gfe dcA|B3AGA|B3AGA|Bdc BAG|FFFF2|]
